svg/m/SY.svg

<svg width="20" height="15" viewBox="0 0 20 15" fill="none" xmlns="http://www.w3.org/2000/svg">
<g clip-path="url(#clip0_270_60941)">
<rect width="20" height="15" fill="white"/>
<path fill-rule="evenodd" clip-rule="evenodd" d="M0 0H20V15H0V0Z" fill="#F7FCFF"/>
<path fill-rule="evenodd" clip-rule="evenodd" d="M5.62612 8.66917L4.45695 9.375L4.72363 7.99765L3.75 6.96684L5.06835 6.9111L5.62612 5.625L6.18389 6.9111H7.5L6.52861 7.99765L6.82106 9.375L5.62612 8.66917Z" fill="#409100"/>
<path fill-rule="evenodd" clip-rule="evenodd" d="M14.3761 8.66917L13.207 9.375L13.4736 7.99765L12.5 6.96684L13.8184 6.9111L14.3761 5.625L14.9339 6.9111H16.25L15.2786 7.99765L15.5711 9.375L14.3761 8.66917Z" fill="#409100"/>
<path fill-rule="evenodd" clip-rule="evenodd" d="M0 0V5H20V0H0Z" fill="#E31D1C"/>
<path fill-rule="evenodd" clip-rule="evenodd" d="M0 10V15H20V10H0Z" fill="#272727"/>
</g>
<defs>
<clipPath id="clip0_270_60941">
<rect width="20" height="15" fill="white"/>
</clipPath>
</defs>
</svg>

<svg width="20" height="15" fill="none" xmlns="http://www.w3.org/2000/svg">
  <mask id="a" maskUnits="userSpaceOnUse" x="0" y="0" width="20" height="15">
    <path fill="#fff" d="M0 0h20v15H0z"/>
  </mask>
  <g mask="url(#a)" fill-rule="evenodd" clip-rule="evenodd">
    <path d="M0 0h20v15H0V0z" fill="#F7FCFF"/>
    <path d="M5.626 8.67l-1.17.705.268-1.377-.974-1.031 1.318-.056.558-1.286.558 1.286H7.5l-.971 1.087.292 1.377-1.195-.706zm8.75 0l-1.169.705.267-1.377-.974-1.031 1.318-.056.558-1.286.558 1.286h1.316l-.971 1.087.292 1.377-1.195-.706z" fill="#409100"/>
    <path d="M0 0v5h20V0H0z" fill="#E31D1C"/>
    <path d="M0 10v5h20v-5H0z" fill="#272727"/>
  </g>
</svg>
